X:101
T:Banks of the Dee. RH.101
R:Jig
S:Rev.R.Harrison’s MS,c1815,Cumbria
O:England
A:Temple Sowerby,Cumbria
Z:vmp.Simon Wilson. Review PJH, 2008.
M:6/8
L:1/8
Q:3/8=120
K:C
G|GAB cde|fag fed|ecA GAc|efd c2:|!
|:f|ece g2b|afc’ gec|ceg abc’|cdc BAG|!
faf ec’e|dcd ecA|cBA Ggf|efd c2:|

